packages/icon/src/svg/skip-backward.icon.svg

<svg width="24" height="24" viewBox="0 0 24 24" fill="none" xmlns="http://www.w3.org/2000/svg">
<path fill-rule="evenodd" clip-rule="evenodd" d="M12 2C17.5228 2 22 6.47715 22 12C22 17.5228 17.5228 22 12 22C8.52032 22 5.45575 20.2227 3.66451 17.5264C3.65597 17.5136 3.64697 17.4999 3.63751 17.4853L3.6375 17.4853C3.48684 17.2539 3.55232 16.9442 3.78375 16.7935C3.79059 16.7891 3.79755 16.7848 3.8046 16.7806L4.6706 16.2755L4.67063 16.2755C4.90049 16.1414 5.19511 16.2109 5.34085 16.4336C5.36786 16.4749 5.39227 16.5113 5.41408 16.5428C6.85753 18.6315 9.26895 20 12 20C16.4183 20 20 16.4183 20 12C20 7.58172 16.4183 4 12 4C9.79086 4 7.79086 4.89543 6.34315 6.34315L7.14645 7.14645C7.34171 7.34171 7.34171 7.65829 7.14645 7.85355C7.05268 7.94732 6.9255 8 6.79289 8H3.5C3.22386 8 3 7.77614 3 7.5V4.20711C3 3.93096 3.22386 3.70711 3.5 3.70711C3.63261 3.70711 3.75979 3.75979 3.85355 3.85355L4.92893 4.92893C6.73858 3.11929 9.23858 2 12 2ZM8.63003 15.6H10.34V9.00299H9.08903L7.18103 9.55199L7.51403 10.911L8.63003 10.641V15.6ZM14.007 15.726C12.162 15.726 11.001 14.205 11.001 12.342C11.001 10.461 12.18 8.922 14.025 8.922C15.852 8.922 17.022 10.443 17.022 12.306C17.022 14.187 15.843 15.726 14.007 15.726ZM14.025 14.187C14.781 14.187 15.267 13.413 15.267 12.342V12.324C15.267 11.253 14.754 10.461 14.007 10.461C13.251 10.461 12.756 11.226 12.756 12.306V12.324C12.756 13.404 13.26 14.187 14.025 14.187Z" fill="white"/>
</svg>

<svg aria-label="skip backward icon" viewBox="0 0 24 24"><path fill-rule="evenodd" clip-rule="evenodd" d="M12 2c5.523 0 10 4.477 10 10s-4.477 10-10 10a9.99 9.99 0 01-8.362-4.515.5.5 0 01.167-.704l.866-.505a.5.5 0 01.67.158l.073.109a8 8 0 10.93-10.2l.802.803A.5.5 0 016.793 8H3.5a.5.5 0 01-.5-.5V4.207a.5.5 0 01.854-.353l1.075 1.075A9.969 9.969 0 0112 2zM8.63 15.6h1.71V9.003H9.089l-1.908.549.333 1.359 1.116-.27V15.6zm5.377.126c-1.845 0-3.006-1.521-3.006-3.384 0-1.881 1.179-3.42 3.024-3.42 1.827 0 2.997 1.521 2.997 3.384 0 1.881-1.179 3.42-3.015 3.42zm.018-1.539c.756 0 1.242-.774 1.242-1.845v-.018c0-1.071-.513-1.863-1.26-1.863-.756 0-1.251.765-1.251 1.845v.018c0 1.08.504 1.863 1.269 1.863z"/></svg>
